build/flags/Uganda.svg

<svg xmlns="http://www.w3.org/2000/svg" fill="none" viewBox="0 0 28 28" focusable="false"><defs><filter id="Uganda_svg__a"><feColorMatrix values="0 0 0 0 1 0 0 0 0 1 0 0 0 0 1 0 0 0 1 0"/></filter></defs><mask id="Uganda_svg__b" width="28" height="20" x="0" y="4" maskUnits="userSpaceOnUse"><g filter="url(#Uganda_svg__a)"><rect width="28" height="20" y="4" fill="#FFF" rx="3"/><rect width="28" height="20" y="4" stroke="#969696" stroke-opacity="0" stroke-width="0" rx="3"/></g></mask><path fill="none" d="M0 0H28V28H0z"/><rect width="28" height="20" y="4" fill="#FFF" rx="3"/><rect width="28" height="20" y="4" rx="3"/><g mask="url(#Uganda_svg__b)"><path fill="#262626" fill-rule="evenodd" d="M0 6.66667L28 6.66667L28 4L0 4L0 6.66667Z"/><path d="M28 6.66667L28 4L0 4L0 6.66667L28 6.66667Z"/><path fill="#262626" fill-rule="evenodd" d="M0 17.3333L28 17.3333L28 14.6666L0 14.6666L0 17.3333Z"/><path d="M28 17.3333L28 14.6666L0 14.6666L0 17.3333L28 17.3333Z"/><path fill="#ED1623" fill-rule="evenodd" d="M0 14.6666L28 14.6666L28 10.6666L0 10.6666L0 14.6666Z"/><path d="M28 14.6666L28 10.6666L0 10.6666L0 14.6666L28 14.6666Z"/><path fill="#FEE044" fill-rule="evenodd" d="M0 10.6666L28 10.6666L28 6.66663L0 6.66663L0 10.6666Z"/><path d="M28 10.6666L28 6.66663L0 6.66663L0 10.6666L28 10.6666Z"/><path fill="#ED1623" fill-rule="evenodd" d="M0 24L28 24L28 21.3334L0 21.3334L0 24Z"/><path d="M28 24L28 21.3334L0 21.3334L0 24L28 24Z"/><path fill="#FEE044" fill-rule="evenodd" d="M0 21.3334L28 21.3334L28 17.3334L0 17.3334L0 21.3334Z"/><path d="M28 21.3334L28 17.3334L0 17.3334L0 21.3334L28 21.3334Z"/><path fill="#FFF" fill-rule="evenodd" d="M14 18.6667C16.5773 18.6667 18.6666 16.5774 18.6666 14C18.6666 11.4227 16.5773 9.33337 14 9.33337C11.4227 9.33337 9.33331 11.4227 9.33331 14C9.33331 16.5774 11.4227 18.6667 14 18.6667Z"/><path d="M18.6666 14C18.6666 11.4227 16.5773 9.33337 14 9.33337C11.4227 9.33337 9.33331 11.4227 9.33331 14C9.33331 16.5774 11.4227 18.6667 14 18.6667C16.5773 18.6667 18.6666 16.5774 18.6666 14Z"/><path fill="#262626" fill-rule="evenodd" d="M12.9024 11.569C12.7722 11.4389 12.7722 11.2278 12.9024 11.0976L13.3142 10.6858C13.3269 10.673 13.3383 10.6597 13.3492 10.6453C13.3842 10.5992 13.4735 10.4865 13.5778 10.3917C13.7545 10.231 14.2579 10.2141 14.4323 10.3773C14.4797 10.4216 14.5229 10.471 14.5591 10.5162C14.631 10.6062 14.6353 10.7293 14.5838 10.8323L14.0352 11.9296C14.012 11.9759 14 12.0269 14 12.0787L14 12.4606C14 12.5869 14.0713 12.7023 14.1843 12.7588L15.285 13.3091C15.317 13.3252 15.3462 13.3462 15.3716 13.3716L16.4968 14.4968C16.5982 14.5982 16.6234 14.7532 16.5592 14.8815L16.2068 15.5863C16.1051 15.7898 15.8339 15.8339 15.673 15.673L15.569 15.569C15.4389 15.4389 15.2278 15.4389 15.0976 15.569L14.7643 15.9024C14.7018 15.9649 14.6667 16.0497 14.6667 16.1381L14.6667 16.5286C14.6667 16.617 14.7018 16.7018 14.7643 16.7643L14.7643 16.7643C14.9743 16.9743 14.8256 17.3333 14.5286 17.3333L14.1381 17.3333C13.8411 17.3333 13.6924 16.9743 13.9024 16.7643L13.9024 16.7643C13.9649 16.7018 14 16.617 14 16.5286L14 16.3333C14 16.1492 13.8508 16 13.6667 16L13.4714 16C13.383 16 13.2982 16.0351 13.2357 16.0976L12.9024 16.431C12.7722 16.5611 12.5611 16.5611 12.431 16.431L12.2357 16.2357C12.1055 16.1055 12.1055 15.8945 12.2357 15.7643L12.569 15.431C12.6315 15.3684 12.7163 15.3333 12.8047 15.3333L13.1953 15.3333C13.4922 15.3333 13.641 14.9743 13.431 14.7643L12.2357 13.569C12.1055 13.4389 12.1055 13.2278 12.2357 13.0976L13.0976 12.2357C13.2278 12.1055 13.2278 11.8945 13.0976 11.7643L12.9024 11.569Z"/><path d="M13.3142 10.6858C13.3269 10.673 13.3386 10.6593 13.3495 10.645C13.3847 10.5986 13.4738 10.4861 13.578 10.3915C13.7547 10.2308 14.2577 10.214 14.4321 10.3771C14.4795 10.4215 14.5228 10.4708 14.559 10.5161C14.6309 10.606 14.6353 10.7293 14.5838 10.8323L14.0352 11.9296C14.012 11.9759 14 12.0269 14 12.0787L14 12.4606C14 12.5869 14.0713 12.7023 14.1843 12.7588L15.285 13.3091C15.317 13.3252 15.3462 13.3462 15.3716 13.3716L16.4968 14.4968C16.5982 14.5982 16.6234 14.7532 16.5592 14.8815L16.2068 15.5863C16.1051 15.7898 15.8339 15.8339 15.673 15.673L15.569 15.569C15.4389 15.4389 15.2278 15.4389 15.0976 15.569L14.7643 15.9024C14.7018 15.9649 14.6667 16.0497 14.6667 16.1381L14.6667 16.5286C14.6667 16.617 14.7018 16.7018 14.7643 16.7643C14.9743 16.9743 14.8256 17.3333 14.5286 17.3333L14.1381 17.3333C13.8411 17.3333 13.6924 16.9743 13.9024 16.7643C13.9649 16.7018 14 16.617 14 16.5286L14 16.3333C14 16.1492 13.8508 16 13.6667 16L13.4714 16C13.383 16 13.2982 16.0351 13.2357 16.0976L12.9024 16.431C12.7722 16.5611 12.5611 16.5611 12.431 16.431L12.2357 16.2357C12.1055 16.1055 12.1055 15.8945 12.2357 15.7643L12.569 15.431C12.6315 15.3684 12.7163 15.3333 12.8047 15.3333L13.1953 15.3333C13.4922 15.3333 13.641 14.9743 13.431 14.7643L12.2357 13.569C12.1055 13.4389 12.1055 13.2278 12.2357 13.0976L13.0976 12.2357C13.2278 12.1055 13.2278 11.8945 13.0976 11.7643L12.9024 11.569C12.7722 11.4389 12.7722 11.2278 12.9024 11.0976L13.3142 10.6858Z"/></g></svg>

<svg xmlns="http://www.w3.org/2000/svg" fill="none" viewBox="0 0 28 28" focusable="false"><path fill="none" d="M0 0h28v28H0z"/><rect width="28" height="20" y="4" fill="#FFF" rx="3"/><rect width="28" height="20" y="4" rx="3"/><mask id="Uganda_svg__a" width="28" height="20" x="0" y="4" mask-type="alpha" maskUnits="userSpaceOnUse"><rect width="28" height="20" y="4" fill="#FFF" rx="3"/><rect width="28" height="20" y="4" stroke="#979797" stroke-opacity="0" stroke-width="0" rx="3"/></mask><g mask="url(#Uganda_svg__a)"><path fill="#262626" fill-rule="evenodd" d="M0 6.66h28V4H0z"/><path d="M28 6.66V4H0v2.66z"/></g><g mask="url(#Uganda_svg__a)"><path fill="#262626" fill-rule="evenodd" d="M0 17.33h28v-2.67H0z"/><path d="M28 17.33v-2.67H0v2.67z"/></g><g mask="url(#Uganda_svg__a)"><path fill="#ED1623" fill-rule="evenodd" d="M0 14.66h28v-4H0z"/><path d="M28 14.66v-4H0v4z"/></g><g mask="url(#Uganda_svg__a)"><path fill="#FEE044" fill-rule="evenodd" d="M0 10.66h28v-4H0z"/><path d="M28 10.66v-4H0v4z"/></g><g mask="url(#Uganda_svg__a)"><path fill="#ED1623" fill-rule="evenodd" d="M0 24h28v-2.67H0z"/><path d="M28 24v-2.67H0V24z"/></g><g mask="url(#Uganda_svg__a)"><path fill="#FEE044" fill-rule="evenodd" d="M0 21.33h28v-4H0z"/><path d="M28 21.33v-4H0v4z"/></g><g mask="url(#Uganda_svg__a)"><path fill="#FFF" fill-rule="evenodd" d="M14 18.66a4.665 4.665 0 1 0-.01-9.33 4.665 4.665 0 0 0 .01 9.33"/><path d="M18.66 14c0-2.58-2.09-4.67-4.66-4.67-2.58 0-4.67 2.09-4.67 4.67a4.665 4.665 0 0 0 9.33 0"/></g><g mask="url(#Uganda_svg__a)"><path fill="#262626" fill-rule="evenodd" d="M12.9 11.56a.33.33 0 0 1 0-.47l.41-.41c.01-.01.02-.03.03-.04.04-.05.13-.16.23-.25.18-.16.68-.18.86-.02.04.05.09.1.12.14.08.09.08.21.03.32l-.55 1.09q-.03.075-.03.15v.39c0 .12.07.24.18.29l1.1.55c.03.02.06.04.09.07l1.12 1.12c.1.1.13.26.06.39l-.35.7c-.1.2-.37.25-.53.09l-.11-.11a.33.33 0 0 0-.47 0l-.33.34c-.06.06-.1.14-.1.23v.39c0 .09.04.18.1.24.21.21.06.57-.24.57h-.39c-.29 0-.44-.36-.23-.57.06-.06.1-.15.1-.24v-.19c0-.19-.15-.33-.34-.33h-.19a.34.34 0 0 0-.24.09l-.33.34c-.13.13-.34.13-.47 0l-.2-.2a.33.33 0 0 1 0-.47l.33-.33c.07-.07.15-.1.24-.1h.39c.3 0 .45-.36.24-.57l-1.2-1.2a.33.33 0 0 1 0-.47l.86-.86c.13-.13.13-.34 0-.47z"/><path d="M13.31 10.68c.01-.01.02-.03.03-.04.04-.05.13-.16.23-.25.18-.16.68-.18.86-.02.04.05.09.1.12.14.08.09.08.21.03.32l-.55 1.09q-.03.075-.03.15v.39c0 .12.07.24.18.29l1.1.55c.03.02.06.04.09.07l1.12 1.12c.1.1.13.26.06.39l-.35.7c-.1.2-.37.25-.53.09l-.11-.11a.33.33 0 0 0-.47 0l-.33.34c-.06.06-.1.14-.1.23v.39c0 .09.04.18.1.24.21.21.06.57-.24.57h-.39c-.29 0-.44-.36-.23-.57.06-.06.1-.15.1-.24v-.19c0-.19-.15-.33-.34-.33h-.19a.34.34 0 0 0-.24.09l-.33.34c-.13.13-.34.13-.47 0l-.2-.2a.33.33 0 0 1 0-.47l.33-.33c.07-.07.15-.1.24-.1h.39c.3 0 .45-.36.24-.57l-1.2-1.2a.33.33 0 0 1 0-.47l.86-.86c.13-.13.13-.34 0-.47l-.19-.2a.33.33 0 0 1 0-.47z"/></g></svg>
